!!!OTL: Tandernack
!!!ARE: Europa, Mitteleuropa, Deutschland
!!!SCT: A0311A
!!!YEM: Copyright 1995, estate of Helmut Schaffrath.
**kern
*ICvox
*Ivox
*M3/2
*k[]
*C:
=1
{1e
2e
=2
1e
2f
=3
2e
2d
2d
=4
1c}
{2c
=5
1e
2e
=6
1a
2a
=7
2g
2f
2f
=8
1e}
{2e
=9
1g
2g
=10
1a
2a
=11
1e
2e
=12
1c}
{2c
=13
1d
2d
=14
1e
2d
=15
2c
2B
2B
=16
1.A}
==
!!!AGN: Romanze, Ballade, Lied
!! Ott 1534 No. 98
!!!ONB: ESAC (Essen Associative Code) Database: ALTDEU
!!!AMT: simple triple
!!!AIN: vox
!!!EED: Helmut Schaffrath
!!!EEV: 1.0
*-
